X:1
T:Marr Lodge
T:Marr Lodge
T:Alexander Walker
C:Alexander Walker
L:1/8
M:2/2
K:A
V:1 treble 
V:1
 f | eAcA BF Ff | eAcA (B2 B/c/)d | eAcA BFFG | AFEC (A,2 A,) :| E | A2 AF BEEF | A2 Ac B3 c | %8
 A2 AF BFFG | AFEC A,2 A,c | A2 AF BEEF | A/A/A cd{f} e3 g | fddf ecce | dcBG (A2 A) || %14

